assets/images/brand.svg

<?xml version="1.0" encoding="UTF-8"?><svg xmlns="http://www.w3.org/2000/svg" xmlns:xlink="http://www.w3.org/1999/xlink" viewBox="0 0 48 48" version="1.1"><g id="surface1"><path d="M41 42H7c-2.207 0-4-1.793-4-4V10c0-2.207 1.793-4 4-4h34c2.207 0 4 1.793 4 4v28c0 2.207-1.793 4-4 4z" fill="#FFC107"/><path d="M7 10h34v28H7z" fill="#388E3C"/><path d="M28 36h8v2h-8z" fill="#FFF"/><path d="M27 20a3 3 0 1 1-6.002-.002A3 3 0 0 1 27 20z" fill="#FFF"/><path d="M18 23a1.999 1.999 0 1 1-4 0 1.999 1.999 0 1 1 4 0z" fill="#A5D6A7"/><path d="M7 10h34v2H7z" fill="#2E7D32"/><path d="M36 38h-8l4 4h8z" fill="#FFAB00"/><path d="M34 23a1.999 1.999 0 1 1-4 0 1.999 1.999 0 1 1 4 0z" fill="#A5D6A7"/><path d="M37 28.688c0-.446-.164-.875-.469-1.2C35.84 26.75 34.363 26 32 26c-2.363 0-3.84.75-4.531 1.488a1.747 1.747 0 0 0-.469 1.2V30h10z" fill="#A5D6A7"/><path d="M21 28.688c0-.446-.164-.875-.469-1.2C19.84 26.75 18.363 26 16 26c-2.363 0-3.84.75-4.531 1.488a1.747 1.747 0 0 0-.469 1.2V30h10z" fill="#A5D6A7"/><path d="M30 27.742c0-.535-.195-1.047-.563-1.437C28.605 25.418 26.837 24 24 24c-2.836 0-4.605 1.418-5.438 2.305A2.08 2.08 0 0 0 18 27.742V30h12z" fill="#FFF"/></g><metadata><rdf:RDF xmlns:rdf="http://www.w3.org/1999/02/22-rdf-syntax-ns#" xmlns:rdfs="http://www.w3.org/2000/01/rdf-schema#" xmlns:dc="http://purl.org/dc/elements/1.1/"><rdf:Description about="https://iconscout.com/legal#licenses" dc:title="google,classroom" dc:description="google,classroom" dc:publisher="Iconscout" dc:date="2017-12-15" dc:format="image/svg+xml" dc:language="en"><dc:creator><rdf:Bag><rdf:li>Icons8</rdf:li></rdf:Bag></dc:creator></rdf:Description></rdf:RDF></metadata></svg>

<?xml version="1.0" standalone="no"?><!-- Generator: Gravit.io --><svg xmlns="http://www.w3.org/2000/svg" xmlns:xlink="http://www.w3.org/1999/xlink" style="isolation:isolate" viewBox="0 0 48 48" width="48" height="48"><defs><clipPath id="_clipPath_ZH5fgxyeuPgR4zPEXFVBachPs0xgiuPi"><rect width="48" height="48"/></clipPath></defs><g clip-path="url(#_clipPath_ZH5fgxyeuPgR4zPEXFVBachPs0xgiuPi)"><path d=" M 41 42 L 7 42 C 4.793 42 3 40.207 3 38 L 3 10 C 3 7.793 4.793 6 7 6 L 41 6 C 43.207 6 45 7.793 45 10 L 45 38 C 45 40.207 43.207 42 41 42 Z " fill="rgb(255,193,7)"/><path d=" M 7 10 L 41 10 L 41 38 L 7 38 L 7 10 Z " fill="rgb(70,127,207)"/><path d=" M 28 36 L 36 36 L 36 38 L 28 38 L 28 36 Z " fill="rgb(255,255,255)"/><path d=" M 27 20 C 27 21.072 26.427 22.063 25.499 22.598 C 24.57 23.134 23.426 23.134 22.498 22.597 C 21.569 22.061 20.998 21.07 20.998 19.998 C 20.999 18.341 22.343 16.997 24 16.998 C 25.657 16.999 27.001 18.343 27 20 L 27 20 Z " fill="rgb(255,255,255)"/><path d=" M 18 23 C 18 24.105 17.105 25 16 25 C 14.895 25 14 24.105 14 23 C 14 21.895 14.895 21 16 21 C 17.105 21 18 21.895 18 23 Z " fill="rgb(69,170,242)"/><path d=" M 7 10 L 41 10 L 41 12 L 7 12 L 7 10 Z " fill="rgb(101,116,205)"/><path d=" M 36 38 L 28 38 L 32 42 L 40 42 L 36 38 Z " fill="rgb(255,171,0)"/><path d=" M 34 23 C 34 24.105 33.105 25 32 25 C 30.895 25 30 24.105 30 23 C 30 21.895 30.895 21 32 21 C 33.105 21 34 21.895 34 23 Z " fill="rgb(69,170,242)"/><path d=" M 37 28.688 C 37 28.242 36.836 27.813 36.531 27.488 C 35.84 26.75 34.363 26 32 26 C 29.637 26 28.16 26.75 27.469 27.488 C 27.165 27.814 26.998 28.243 27 28.688 L 27 30 L 37 30 L 37 28.688 Z " fill="rgb(69,170,242)"/><path d=" M 21 28.688 C 21 28.242 20.836 27.813 20.531 27.488 C 19.84 26.75 18.363 26 16 26 C 13.637 26 12.16 26.75 11.469 27.488 C 11.165 27.814 10.998 28.243 11 28.688 L 11 30 L 21 30 L 21 28.688 Z " fill="rgb(69,170,242)"/><path d=" M 30 27.742 C 30 27.207 29.805 26.695 29.437 26.305 C 28.605 25.418 26.837 24 24 24 C 21.164 24 19.395 25.418 18.562 26.305 C 18.197 26.694 17.996 27.209 18 27.742 L 18 30 L 30 30 L 30 27.742 Z " fill="rgb(255,255,255)"/></g></svg>
